X: 18878
T: In Memory Of Coleman
R: reel
M: 4/4
K: Gdorian
|:DGBd cBGF|DF~F2 GFDF|GABc dgga|bgaf dgga|
bgaf gfdc|BdBG FDCD|FGBd c2Bc|1 dgdc BGGF:|2 dgdc BGGA||
|:B2fB fggf|eccB AFFA|(3Bcd ga fdcA|FGAc BGGA|
B2fB FBfB|DBfB AFFA|GABc dbag|1 fdcA BGGA:|2 fdcA BGGF||

